X:2602
T:Ho Mo Chaileagan. a Jig.
O:england
S:Alexander Mackay, A collection of Reels...
B:NLS Glen.344
N:Mc16 in Gore's Scottish Fiddle Music Index
N:Gore guesses 1802, a note (by Murdoch Henderson?)
N:on the titlepage says there's an 1832 watermark.
M:6/8
L:1/8
K:G
g2d BdB|d2A Bde|g2d BdB|d2B ABe|g2d BdB|d2A Bde|f2d e2B|   d2B ABe:|
f2d e2B|d2A Bde|f2d e2B|d2B ABe|f2d e2B|d2A Bde|fga efg|{e}d2B ABe:|


